assets/icons/qvision/night_shelter.svg

<svg xmlns="http://www.w3.org/2000/svg" enable-background="new 0 0 24 24" height="24" viewBox="0 0 24 24" width="24"><rect fill="none" height="24" width="24"/><path d="M12,3L4,9v12h16V9L12,3z M9.75,12.5c0.69,0,1.25,0.56,1.25,1.25S10.44,15,9.75,15S8.5,14.44,8.5,13.75S9.06,12.5,9.75,12.5z M17,18h-1v-1.5H8V18H7v-7h1v4.5h3.5V12H15c1.1,0,2,0.9,2,2V18z"/></svg>

<svg width="24" height="24" viewBox="0 0 24 24" fill="none" xmlns="http://www.w3.org/2000/svg">
<g clip-path="url(#clip0_147_6230)">
<path d="M12 3L4 9V21H20V9L12 3ZM9.75 12.5C10.44 12.5 11 13.06 11 13.75C11 14.44 10.44 15 9.75 15C9.06 15 8.5 14.44 8.5 13.75C8.5 13.06 9.06 12.5 9.75 12.5ZM17 18H16V16.5H8V18H7V11H8V15.5H11.5V12H15C16.1 12 17 12.9 17 14V18Z" fill="#323232"/>
</g>
<defs>
<clipPath id="clip0_147_6230">
<rect width="24" height="24" fill="white"/>
</clipPath>
</defs>
</svg>
